X: 1
T: Preston City, The
M: 3/4
L: 1/8
R: mazurka
K: Gmaj
|: d B>A |
G2 G>D G>B | G2 G>D G>B | d2 d>c B>c | A3 B A>F |
D2 F>D F>A | D2 F>D F>A | d2 d>c B>A |1 B3 :|2 G3 ||
|: B (3DGB |
d2 d>B G>g | e2 c2 A2 | F2 F>A d>c | B>D G>B d>^c |
d>G B>d g>f | e2 c2 A2 | (3FGA d>c B>A |1 G3 :|2 G3 ||
|: =f e>d |
c2 c>G E>G | c2 c>G E>G | e>d c>B A>G | =F3 d ^c>d |
d2 d>B G>B | d3 B G>B | g>=f e>d c>B |1 c3 :|2 c3 ||
